X: 42014
T: Walter Bulwer's
R: polka
M: 2/4
K: Dmajor
|:DG GF/G/|AE E2|F/G/A F/G/A|BG G2|
DG GF/G/|AE E2|F/G/A DE/F/|G2 G2:|
|:AA B2|AA F2|GG E2|AA F2|
AA B2|AA F2|GG EF/E/|D2 D2:|

